X:285
T:score83
L:1/8
Q:1/4=96
M:2/2
I:linebreak $
K:D
!p! F zF^E F zFE | F zE z D zF^E | F zF^E F zFE |$ F zB z A zAF | G zB z A zAE | %5
 F zB z A z!<(!AF!<)! |$!mf! E z c4 B2- | B zA^G ABA=G | F z z2 z2 z2 |] %9
